!!!OTL: DAS WAREN MIR SELIGE TAGE
!!!ARE: Europa, Mitteleuropa, Deutschland, Thueringen
!!!SCT: B0253
!!!YEM: Copyright 1995, estate of Helmut Schaffrath.
**kern
*ICvox
*Ivox
*M4/4
*k[]
*C:
{4G
=1
8G
8e
8d
8c
8c
8B
8A
8G
=2
4.G
8c
4.c}
{8G
=3
4e
8d
8c
8c
8B
8A
8G
=4
4.G
8c
4c}
{4e
=5
8e
8c
8c
8c
4c
8d
8e
=6
2d
4r}
{4d
=7
8d
8B
8G
8E
4D
8E
8F#
=8
2G
4r}
{4d
=9
8d
8B
8B
8B
8B
8G
8G
8G
=10
8G
8e
2c}
{4c
=11
8d
8B
8B
8B
8B
8G
8G
8G
=12
8G
8e
2c}
{4G
=13
4c
8c
8c
4c
8d
8e
=14
2d
4e}
{8d
8c
=15
8c
8B
8A
8G
4G
8A
8B
=16
2c
4r}
==
!!!AGN: Stimmungs - Lied, Sehnsucht
!!!ONB: ESAC (Essen Associative Code) Database: BOEHME
!!!AMT: simple quadruple
!!!AIN: vox
!!!EED: Helmut Schaffrath
!!!EEV: 1.0
*-
